static/img/in-field/switch-label-right.svg

<svg fill="none" height="57" viewBox="0 0 144 57" width="144" xmlns="http://www.w3.org/2000/svg"><rect fill="#217cbb" height="32" rx="16" transform="matrix(1 0 0 -1 7 44.6668)" width="64"/><path d="m68 28.6668c0 7.1797-5.8203 13-13 13s-13-5.8203-13-13 5.8203-13 13-13 13 5.8203 13 13z" fill="#fff"/><path d="m88.1592 37.6668v-15.7051h1.8262v14.0508h6.9287v1.6543zm18.6518 0-.355-1.6758h-.086c-.587.7377-1.174 1.239-1.762 1.5039-.58.2578-1.307.3868-2.18.3868-1.168 0-2.084-.3008-2.7503-.9024-.6588-.6016-.9882-1.4573-.9882-2.5674 0-2.3776 1.9015-3.6237 5.7045-3.7383l1.998-.0644v-.7305c0-.9238-.201-1.6041-.602-2.041-.394-.444-1.028-.666-1.901-.666-.981 0-2.091.3008-3.33.9023l-.548-1.3642c.58-.3151 1.214-.5622 1.901-.7412.695-.1791 1.389-.2686 2.084-.2686 1.404 0 2.442.3115 3.115.9346.681.623 1.021 1.6221 1.021 2.9971v8.0351zm-4.029-1.2568c1.11 0 1.98-.3044 2.611-.9131.637-.6087.956-1.461.956-2.5567v-1.0634l-1.784.0752c-1.418.0501-2.442.2721-3.072.666-.623.3867-.934.9918-.934 1.8154 0 .6445.193 1.1351.58 1.4717.394.3366.941.5049 1.643.5049zm14.763-10.71c1.547 0 2.746.53 3.599 1.5899.859 1.0527 1.289 2.5459 1.289 4.4794 0 1.9336-.434 3.4375-1.3 4.5118-.86 1.067-2.056 1.6006-3.588 1.6006-.766 0-1.468-.1397-2.106-.419-.63-.2865-1.16-.7233-1.589-1.3105h-.129l-.376 1.5146h-1.279v-16.7148h1.784v4.0605c0 .9095-.029 1.7259-.086 2.4492h.086c.83-1.1744 2.062-1.7617 3.695-1.7617zm-.258 1.4932c-1.217 0-2.095.3509-2.632 1.0527-.537.6947-.805 1.8692-.805 3.5234 0 1.6543.275 2.8396.827 3.5557.551.709 1.436 1.0635 2.653 1.0635 1.096 0 1.912-.3975 2.449-1.1924.537-.8021.806-1.9515.806-3.4482 0-1.5326-.269-2.6748-.806-3.4268-.537-.7519-1.368-1.1279-2.492-1.1279zm13.495 10.6885c-1.74 0-3.115-.53-4.125-1.5899-1.002-1.0599-1.504-2.5316-1.504-4.415 0-1.8978.466-3.4053 1.397-4.5225.938-1.1172 2.195-1.6758 3.77-1.6758 1.476 0 2.643.487 3.502 1.461.86.9668 1.289 2.2451 1.289 3.8349v1.128h-8.11c.036 1.3821.383 2.4313 1.042 3.1474.666.7162 1.601 1.0742 2.804 1.0742 1.267 0 2.521-.2649 3.759-.7949v1.5899c-.63.2721-1.228.4655-1.794.58-.558.1218-1.235.1827-2.03.1827zm-.483-10.71c-.945 0-1.701.3079-2.267.9238-.558.6159-.888 1.4681-.988 2.5567h6.155c0-1.1244-.25-1.9838-.752-2.5782-.501-.6015-1.217-.9023-2.148-.9023zm9.896 10.4951h-1.783v-16.7148h1.783z" fill="#252a2e"/></svg>

<svg width="144" height="57" viewBox="0 0 144 57" fill="none" xmlns="http://www.w3.org/2000/svg">
<rect width="64" height="32" rx="16" transform="matrix(1 0 0 -1 7 44.6668)" fill="#217CBB"/>
<path d="M68 28.6668C68 35.8465 62.1797 41.6668 55 41.6668C47.8203 41.6668 42 35.8465 42 28.6668C42 21.4871 47.8203 15.6668 55 15.6668C62.1797 15.6668 68 21.4871 68 28.6668Z" fill="#fff"/>
<path d="M88.1592 37.6668V21.9617H89.9854V36.0125H96.9141V37.6668H88.1592ZM106.811 37.6668L106.456 35.991H106.37C105.783 36.7287 105.196 37.23 104.608 37.4949C104.028 37.7527 103.301 37.8817 102.428 37.8817C101.26 37.8817 100.344 37.5809 99.6777 36.9793C99.0189 36.3777 98.6895 35.522 98.6895 34.4119C98.6895 32.0343 100.591 30.7882 104.394 30.6736L106.392 30.6092V29.8787C106.392 28.9549 106.191 28.2746 105.79 27.8377C105.396 27.3937 104.762 27.1717 103.889 27.1717C102.908 27.1717 101.798 27.4725 100.559 28.074L100.011 26.7098C100.591 26.3947 101.225 26.1476 101.912 25.9686C102.607 25.7895 103.301 25.7 103.996 25.7C105.4 25.7 106.438 26.0115 107.111 26.6346C107.792 27.2576 108.132 28.2567 108.132 29.6317V37.6668H106.811ZM102.782 36.41C103.892 36.41 104.762 36.1056 105.393 35.4969C106.03 34.8882 106.349 34.0359 106.349 32.9402V31.8768L104.565 31.952C103.147 32.0021 102.123 32.2241 101.493 32.618C100.87 33.0047 100.559 33.6098 100.559 34.4334C100.559 35.0779 100.752 35.5685 101.139 35.9051C101.533 36.2417 102.08 36.41 102.782 36.41ZM117.545 25.7C119.092 25.7 120.291 26.23 121.144 27.2899C122.003 28.3426 122.433 29.8358 122.433 31.7693C122.433 33.7029 121.999 35.2068 121.133 36.2811C120.273 37.3481 119.077 37.8817 117.545 37.8817C116.779 37.8817 116.077 37.742 115.439 37.4627C114.809 37.1762 114.279 36.7394 113.85 36.1522H113.721L113.345 37.6668H112.066V20.952H113.85V25.0125C113.85 25.922 113.821 26.7384 113.764 27.4617H113.85C114.68 26.2873 115.912 25.7 117.545 25.7ZM117.287 27.1932C116.07 27.1932 115.192 27.5441 114.655 28.2459C114.118 28.9406 113.85 30.1151 113.85 31.7693C113.85 33.4236 114.125 34.6089 114.677 35.325C115.228 36.034 116.113 36.3885 117.33 36.3885C118.426 36.3885 119.242 35.991 119.779 35.1961C120.316 34.394 120.585 33.2446 120.585 31.7479C120.585 30.2153 120.316 29.0731 119.779 28.3211C119.242 27.5692 118.411 27.1932 117.287 27.1932ZM130.782 37.8817C129.042 37.8817 127.667 37.3517 126.657 36.2918C125.655 35.2319 125.153 33.7602 125.153 31.8768C125.153 29.979 125.619 28.4715 126.55 27.3543C127.488 26.2371 128.745 25.6785 130.32 25.6785C131.796 25.6785 132.963 26.1655 133.822 27.1395C134.682 28.1063 135.111 29.3846 135.111 30.9744V32.1024H127.001C127.037 33.4845 127.384 34.5337 128.043 35.2498C128.709 35.966 129.644 36.324 130.847 36.324C132.114 36.324 133.368 36.0591 134.606 35.5291V37.119C133.976 37.3911 133.378 37.5845 132.812 37.699C132.254 37.8208 131.577 37.8817 130.782 37.8817ZM130.299 27.1717C129.354 27.1717 128.598 27.4796 128.032 28.0955C127.474 28.7114 127.144 29.5636 127.044 30.6522H133.199C133.199 29.5278 132.949 28.6684 132.447 28.074C131.946 27.4725 131.23 27.1717 130.299 27.1717ZM140.195 37.6668H138.412V20.952H140.195V37.6668Z" fill="#252A2E"/>
</svg>
